X:1
T: Invercauld's Reel
C:
R:Strathspey
Q: 128
K:Am
M:4/4
L:1/16
|:DDD2 E3G A3G EG3|DDD2 E3G c6e2|dB3 g3B A3G EG3|DDD2 E3G A6A2|
DDD2 E3G A3G EG3|DDD2 E3G c6e2|dB3 g3B A3G EG3|DDD2 E3G A6B2|
c3A B3G A3G E3B|c3B c3d e3^f g3e|d3B g3B A3G E3G|DDD2 E3G A4 A3B|
c3A B3G A3G E3B|c3B c3d e3^f g3e|d3B g3B A3G E3G|DDD2 E3G A6:|
